public/icons/ALS.svg

<?xml version="1.0" encoding="UTF-8"?>
<svg version="1.1" xmlns="http://www.w3.org/2000/svg" width="96" height="96">
<path d="M0 0 C0.91644287 0.00523682 1.83288574 0.01047363 2.77709961 0.01586914 C4.26113281 0.02070312 4.26113281 0.02070312 5.77514648 0.02563477 C6.81606445 0.03401367 7.85698242 0.04239258 8.92944336 0.05102539 C10.49662109 0.05779297 10.49662109 0.05779297 12.09545898 0.06469727 C14.68600996 0.07652627 17.27644895 0.0930085 19.86694336 0.11352539 C19.18896173 2.98925706 18.33441353 5.32285425 16.92944336 7.92602539 C13.06858329 15.52139011 11.55489701 22.43936026 13.86694336 30.67602539 C16.96601757 36.00255918 20.48310019 40.21723832 26.62475586 41.84399414 C33.95693175 42.69308808 39.01889837 41.70841788 44.86694336 37.11352539 C45.52694336 37.11352539 46.18694336 37.11352539 46.86694336 37.11352539 C47.33100586 36.18540039 47.33100586 36.18540039 47.80444336 35.23852539 C48.49194336 33.86352539 49.17944336 32.48852539 49.86694336 31.11352539 C51.53306241 31.07080439 53.20077221 31.07288707 54.86694336 31.11352539 C56.6414393 32.88802133 55.99724408 35.463698 55.99975586 37.86352539 C56.00104492 39.02883789 56.00233398 40.19415039 56.00366211 41.39477539 C55.99979492 42.62196289 55.99592773 43.84915039 55.99194336 45.11352539 C55.99581055 46.34071289 55.99967773 47.56790039 56.00366211 48.83227539 C56.00237305 49.99758789 56.00108398 51.16290039 55.99975586 52.36352539 C55.99862793 53.44118164 55.9975 54.51883789 55.99633789 55.62915039 C55.86694336 58.11352539 55.86694336 58.11352539 54.86694336 59.11352539 C52.64839072 59.20136081 50.4270584 59.22047148 48.20678711 59.21118164 C47.21008751 59.20905922 47.21008751 59.20905922 46.19325256 59.20689392 C44.06360437 59.20128057 41.93405996 59.18872593 39.80444336 59.17602539 C38.36368967 59.1710121 36.92293433 59.1664489 35.48217773 59.16235352 C31.94373234 59.15130684 28.40534797 59.13403331 24.86694336 59.11352539 C24.87218018 60.01707764 24.87741699 60.92062988 24.8828125 61.8515625 C24.89982022 65.19304028 24.91237669 68.53447231 24.921875 71.87597656 C24.92691437 73.32422612 24.93374589 74.77247056 24.94238281 76.22070312 C24.95446583 78.29827127 24.96017547 80.37577236 24.96459961 82.45336914 C24.96983643 83.70496826 24.97507324 84.95656738 24.98046875 86.24609375 C24.86694336 89.11352539 24.86694336 89.11352539 23.86694336 90.11352539 C21.95236054 90.21324325 20.03412019 90.24433128 18.11694336 90.24633789 C16.95163086 90.24762695 15.78631836 90.24891602 14.58569336 90.25024414 C13.35850586 90.24637695 12.13131836 90.24250977 10.86694336 90.23852539 C9.02616211 90.24432617 9.02616211 90.24432617 7.14819336 90.25024414 C5.98288086 90.24895508 4.81756836 90.24766602 3.61694336 90.24633789 C2.53928711 90.24520996 1.46163086 90.24408203 0.35131836 90.24291992 C-2.13305664 90.11352539 -2.13305664 90.11352539 -3.13305664 89.11352539 C-3.22089206 86.89497275 -3.24000273 84.67364043 -3.23071289 82.45336914 C-3.22929794 81.78890274 -3.227883 81.12443634 -3.22642517 80.43983459 C-3.22081182 78.3101864 -3.20825718 76.180642 -3.19555664 74.05102539 C-3.19054335 72.6102717 -3.18598015 71.16951636 -3.18188477 69.72875977 C-3.17083809 66.19031437 -3.15356456 62.65193 -3.13305664 59.11352539 C-4.03660889 59.11876221 -4.94016113 59.12399902 -5.87109375 59.12939453 C-9.21257153 59.14640225 -12.55400356 59.15895872 -15.89550781 59.16845703 C-17.34375737 59.1734964 -18.79200181 59.18032792 -20.24023438 59.18896484 C-22.31780252 59.20104786 -24.39530361 59.2067575 -26.47290039 59.21118164 C-27.72449951 59.21641846 -28.97609863 59.22165527 -30.265625 59.22705078 C-33.13305664 59.11352539 -33.13305664 59.11352539 -34.13305664 58.11352539 C-34.22053871 56.18685032 -34.24002998 54.25700678 -34.23071289 52.32836914 C-34.22749023 51.15854492 -34.22426758 49.9887207 -34.22094727 48.78344727 C-34.21256836 47.55174805 -34.20418945 46.32004883 -34.19555664 45.05102539 C-34.19104492 43.81545898 -34.1865332 42.57989258 -34.18188477 41.30688477 C-34.17005272 38.24238422 -34.15356837 35.17797818 -34.13305664 32.11352539 C-31.26287223 30.67843318 -28.79761941 31.00194034 -25.59399414 31.01586914 C-24.29204102 31.0190918 -22.99008789 31.02231445 -21.64868164 31.02563477 C-20.26847265 31.03399073 -18.88826432 31.04245569 -17.50805664 31.05102539 C-16.12003739 31.05604038 -14.73201642 31.06060329 -13.34399414 31.06469727 C-9.94030532 31.07651563 -6.53670225 31.09299105 -3.13305664 31.11352539 C-3.14091187 29.75819702 -3.14091187 29.75819702 -3.14892578 28.37548828 C-3.1659335 25.0340105 -3.17848997 21.69257847 -3.18798828 18.35107422 C-3.19302765 16.90282467 -3.19985917 15.45458022 -3.20849609 14.00634766 C-3.22057911 11.92877951 -3.22628875 9.85127842 -3.23071289 7.77368164 C-3.23594971 6.52208252 -3.24118652 5.2704834 -3.24658203 3.98095703 C-3.0954933 0.16474813 -3.0954933 0.16474813 0 0 Z " fill="#FEE209" transform="translate(37.133056640625,5.886474609375)"/>
<path d="M0 0 C1.32 0 2.64 0 4 0 C10.72688806 8.48761715 16.97096265 20.83550567 16.3671875 31.86328125 C15.86668853 34.7757593 14.93292387 36.76970323 13 39 C12.34 39 11.68 39 11 39 C11 39.66 11 40.32 11 41 C5.51690266 43.4529646 0.77063755 43.02750561 -5 42 C-5.66 41.67 -6.32 41.34 -7 41 C-7 40.34 -7 39.68 -7 39 C-7.99 38.67 -8.98 38.34 -10 38 C-12.59555331 33.62854179 -12.71533953 28.91795928 -12 24 C-9.44949585 15.75640622 -5.3695286 6.77497569 0 0 Z " fill="#FEFEFE" transform="translate(67,0)"/>
<path d="M0 0 C4.29 0 8.58 0 13 0 C12.01 1.485 12.01 1.485 11 3 C8.6171875 3.29296875 8.6171875 3.29296875 5.875 3.1875 C4.96492188 3.16042969 4.05484375 3.13335937 3.1171875 3.10546875 C2.41851562 3.07066406 1.71984375 3.03585938 1 3 C0.67 2.01 0.34 1.02 0 0 Z " fill="#FCEC41" transform="translate(63,48)"/>
<path d="M0 0 C1.1894524 1.7841786 2.34821969 3.59045948 3.4375 5.4375 C4.84347634 7.7433012 6.34349569 9.87020874 8 12 C6.35 11.67 4.7 11.34 3 11 C2.67 10.01 2.34 9.02 2 8 C1.34 7.67 0.68 7.34 0 7 C0 4.69 0 2.38 0 0 Z " fill="#F9ED2E" transform="translate(49,33)"/>
</svg>

<?xml version="1.0" encoding="UTF-8" standalone="no"?>
<svg
   version="1.1"
   width="96"
   height="96"
   id="svg10"
   sodipodi:docname="ALS.svg"
   inkscape:version="1.1.2 (0a00cf5339, 2022-02-04)"
   xmlns:inkscape="http://www.inkscape.org/namespaces/inkscape"
   xmlns:sodipodi="http://sodipodi.sourceforge.net/DTD/sodipodi-0.dtd"
   xmlns="http://www.w3.org/2000/svg"
   xmlns:svg="http://www.w3.org/2000/svg">
  <defs
     id="defs14" />
  <sodipodi:namedview
     id="namedview12"
     pagecolor="#ffffff"
     bordercolor="#666666"
     borderopacity="1.0"
     inkscape:pageshadow="2"
     inkscape:pageopacity="0.0"
     inkscape:pagecheckerboard="true"
     showgrid="false"
     inkscape:snap-page="true"
     showguides="true"
     inkscape:guide-bbox="true"
     inkscape:zoom="5.6568543"
     inkscape:cx="16.528621"
     inkscape:cy="42.956737"
     inkscape:window-width="1920"
     inkscape:window-height="1026"
     inkscape:window-x="0"
     inkscape:window-y="0"
     inkscape:window-maximized="1"
     inkscape:current-layer="svg10">
    <sodipodi:guide
       position="4.7942843,59.069969"
       orientation="0,-1"
       id="guide1314" />
  </sodipodi:namedview>
  <path
     d="m 0,0 2.7770996,0.01586914 2.9980469,0.0097656 3.1542969,0.02539062 3.1660156,0.01367188 c 2.590551,0.011829 5.18099,0.02831123 7.771484,0.04882812 -0.677981,2.87573171 -1.532529,5.20932881 -2.9375,7.81250001 -3.86086,7.5953646 -5.374546,14.5133346 -3.0625,22.7499996 3.099075,5.326534 6.616157,9.541213 12.757813,11.167969 7.332176,0.849094 12.394142,-0.135576 18.242187,-4.730469 l 1.6128,-1.419667 c 2.075318,-2.329679 2.504529,-2.81499 3.3872,-4.580333 1.666119,-0.04272 3.333829,-0.04064 5,0 1.774496,1.774496 1.130301,4.350173 1.132813,6.75 l 0.0039,3.53125 -0.01172,3.71875 0.01172,3.71875 -0.0039,3.53125 -0.0034,3.265625 c -0.129395,2.484375 -0.129395,2.484375 -1.129395,3.484375 -2.218552,0.08784 -4.439885,0.106946 -6.660156,0.09766 l -2.013534,-0.0043 c -2.129649,-0.0056 -4.259193,-0.01817 -6.38881,-0.03087 -1.440753,-0.005 -2.881509,-0.0096 -4.322265,-0.01367 -3.538446,-0.01105 -7.07683,-0.02832 -10.615235,-0.04883 l 0.01587,2.738037 c 0.01701,3.341478 0.02956,6.68291 0.03906,10.024415 0.005,1.448249 0.01187,2.896494 0.02051,4.344726 0.01208,2.077568 0.01779,4.155069 0.02222,6.232666 l 0.01587,3.792725 c -0.113526,2.867431 -0.113526,2.867431 -1.113526,3.867431 -1.914582,0.09972 -3.832823,0.130806 -5.75,0.132813 l -3.53125,0.0039 -3.71875,-0.01172 -3.7187496,0.01172 -3.53125,-0.0039 -3.26562504,-0.0034 C -2.1330566,90.113525 -2.1330566,90.113525 -3.1330566,89.113525 -3.2208921,86.894973 -3.2400027,84.67364 -3.2307129,82.453369 l 0.00429,-2.013534 c 0.00561,-2.129649 0.018168,-4.259193 0.030869,-6.38881 0.00501,-1.440753 0.00958,-2.881509 0.013672,-4.322265 0.011047,-3.538446 0.02832,-7.07683 0.048828,-10.615235 l -2.7380371,0.01587 c -3.3414778,0.01701 -6.6829103,0.02956 -10.0244143,0.03906 -1.448249,0.005 -2.896494,0.01187 -4.344726,0.02051 -2.077569,0.01208 -4.15507,0.01779 -6.232666,0.02222 l -3.792725,0.01587 c -2.867432,-0.113526 -2.867432,-0.113526 -3.867432,-1.113526 -0.08748,-1.926675 -0.106973,-3.856518 -0.09766,-5.785156 l 0.0098,-3.544922 0.02539,-3.732422 0.01367,-3.74414 c 0.01183,-3.064501 0.02832,-6.128907 0.04883,-9.19336 0.01206,-1.235068 0.0103,-1.069969 1.793029,-1.071805 33.8466031,-0.03486 5.4271,-0.03159 6.746034,-0.02585 l 3.945312,0.0098 c 1.380209,0.0084 2.760418,0.01682 4.140625,0.02539 1.38802,0.005 2.776041,0.0096 4.164063,0.01367 3.4036887,0.01182 6.8072917,0.02829 10.2109374,0.04883 l -0.015869,-2.738037 c -0.017008,-3.341478 -0.029564,-6.68291 -0.039063,-10.024414 -0.00504,-1.448249 -0.011871,-2.896494 -0.020508,-4.344726 -0.012083,-2.077568 -0.017793,-4.1550696 -0.022217,-6.2326664 L -3.246582,3.980957 C -3.0954933,0.16474813 -3.0954933,0.16474813 0,0 Z"
     fill="#fee209"
     transform="translate(37.133057,5.8864746)"
     id="path2"
     sodipodi:nodetypes="ccccccccccccccccccccccccccccccccccccccccccccccccccccccsccccccccccc" />
  <path
     d="m 0,0 h 4 c 6.726888,8.4876172 12.970963,20.835506 12.367187,31.863281 -0.500498,2.912478 -1.015316,4.188308 -2.657888,6.883116 C 12.530176,40.383224 12.051006,40.498922 11,41 5.5169027,43.452965 0.77063755,43.027506 -5,42 l -2,-1 c -2.3663198,-1.783943 -2.1363316,-1.646734 -3,-3 -2.595553,-4.371458 -2.71534,-9.082041 -2,-14 C -9.4494958,15.756406 -5.3695286,6.7749757 0,0 Z"
     fill="#fefefe"
     transform="translate(67)"
     id="path4"
     sodipodi:nodetypes="cccccccccc" />
</svg>
